Numix-GalliumOS/64/mimetypes/application-x-arj.svg

<svg xmlns="http://www.w3.org/2000/svg" xmlns:xlink="http://www.w3.org/1999/xlink" width="64px" height="64px" viewBox="0 0 64 64" version="1.1">
<g id="surface1">
<path style=" stroke:none;fill-rule:nonzero;fill:rgb(75.686275%,58.431373%,32.54902%);fill-opacity:1;" d="M 10.671875 0 C 9.296875 0 8 1.355469 8 2.789062 L 8 61.210938 C 8 62.566406 9.375 64 10.671875 64 L 53.328125 64 C 54.625 64 56 62.566406 56 61.210938 L 56 18 L 38 0 Z M 10.671875 0 "/>
<path style=" stroke:none;fill-rule:nonzero;fill:rgb(0%,0%,0%);fill-opacity:0.196078;" d="M 8 48 L 8 61.335938 C 8 62.632812 9.375 64 10.664062 64 L 53.335938 64 C 54.625 64 56 62.632812 56 61.335938 L 56 48 Z M 8 48 "/>
<path style=" stroke:none;fill-rule:nonzero;fill:rgb(100%,100%,100%);fill-opacity:1;" d="M 24.855469 61.988281 L 24.289062 59.488281 L 21.058594 59.488281 L 20.507812 61.988281 L 18 61.988281 C 18.574219 59.855469 19.15625 57.90625 19.746094 56.15625 C 20.335938 54.394531 20.902344 52.722656 21.453125 51.148438 L 24.078125 51.148438 C 24.652344 52.730469 25.21875 54.417969 25.785156 56.207031 C 26.355469 57.988281 26.90625 59.914062 27.449219 61.988281 L 24.855469 61.988281 M 22.707031 53.246094 C 22.578125 53.65625 22.453125 54.050781 22.332031 54.417969 C 22.222656 54.78125 22.125 55.140625 22.019531 55.511719 C 21.929688 55.855469 21.839844 56.214844 21.75 56.574219 C 21.667969 56.9375 21.585938 57.3125 21.511719 57.699219 L 23.878906 57.699219 C 23.796875 57.3125 23.726562 56.9375 23.644531 56.574219 C 23.570312 56.214844 23.480469 55.855469 23.371094 55.511719 C 23.28125 55.140625 23.175781 54.78125 23.058594 54.417969 C 22.953125 54.050781 22.839844 53.65625 22.707031 53.246094 "/>
<path style=" stroke:none;fill-rule:nonzero;fill:rgb(0%,0%,0%);fill-opacity:0.196078;" d="M 42 18 L 56 32 L 56 18 Z M 42 18 "/>
<path style=" stroke:none;fill-rule:nonzero;fill:rgb(100%,100%,100%);fill-opacity:1;" d="M 31.8125 51.023438 C 32.507812 51.023438 33.132812 51.089844 33.699219 51.230469 C 34.253906 51.367188 34.738281 51.589844 35.140625 51.875 C 35.550781 52.171875 35.855469 52.550781 36.066406 53 C 36.289062 53.441406 36.394531 53.96875 36.394531 54.574219 C 36.394531 55.207031 36.257812 55.78125 35.96875 56.296875 C 35.683594 56.804688 35.207031 57.199219 34.535156 57.46875 C 34.753906 57.773438 34.992188 58.109375 35.238281 58.488281 C 35.492188 58.847656 35.730469 59.234375 35.96875 59.644531 C 36.199219 60.039062 36.421875 60.4375 36.632812 60.847656 C 36.855469 61.25 37.042969 61.628906 37.199219 61.988281 L 34.671875 61.988281 C 34.371094 61.292969 34.015625 60.621094 33.617188 59.972656 C 33.222656 59.324219 32.804688 58.660156 32.34375 57.996094 L 31.089844 57.996094 L 31.089844 61.988281 L 28.679688 61.988281 L 28.679688 51.300781 C 28.917969 51.253906 29.171875 51.210938 29.441406 51.179688 C 29.726562 51.128906 30.015625 51.105469 30.300781 51.089844 C 30.589844 51.066406 30.867188 51.046875 31.128906 51.039062 C 31.394531 51.023438 31.613281 51.023438 31.8125 51.023438 M 33.953125 54.558594 C 33.953125 53.984375 33.753906 53.566406 33.363281 53.296875 C 32.96875 53.03125 32.449219 52.894531 31.8125 52.894531 C 31.722656 52.894531 31.613281 52.902344 31.484375 52.910156 C 31.351562 52.910156 31.222656 52.925781 31.089844 52.949219 L 31.089844 56.207031 L 31.613281 56.207031 C 32.441406 56.207031 33.035156 56.066406 33.402344 55.789062 C 33.761719 55.492188 33.953125 55.082031 33.953125 54.558594 "/>
<path style=" stroke:none;fill-rule:nonzero;fill:rgb(100%,100%,100%);fill-opacity:0.392157;" d="M 38 0 L 55.984375 18 L 40.757812 18 C 39.410156 18 38 16.574219 38 15.226562 Z M 38 0 "/>
<path style=" stroke:none;fill-rule:nonzero;fill:rgb(100%,100%,100%);fill-opacity:1;" d="M 46 58.363281 C 46 58.890625 45.917969 59.390625 45.761719 59.855469 C 45.613281 60.324219 45.367188 60.726562 45.015625 61.078125 C 44.679688 61.429688 44.238281 61.710938 43.6875 61.921875 C 43.136719 62.121094 42.472656 62.21875 41.6875 62.21875 C 40.867188 62.21875 40.175781 62.128906 39.628906 61.941406 C 39.078125 61.75 38.617188 61.523438 38.242188 61.25 L 39.160156 59.535156 C 39.488281 59.726562 39.847656 59.90625 40.234375 60.078125 C 40.644531 60.257812 41.054688 60.339844 41.472656 60.339844 C 42.097656 60.339844 42.605469 60.199219 42.980469 59.90625 C 43.375 59.601562 43.5625 59.042969 43.5625 58.242188 L 43.5625 52.933594 L 39.511719 52.933594 L 39.511719 51.148438 L 46 51.148438 L 46 58.363281 "/>
<path style=" stroke:none;fill-rule:evenodd;fill:rgb(97.647059%,97.647059%,97.647059%);fill-opacity:1;" d="M 18 0 L 24 0 L 24 6 L 18 6 Z M 18 0 "/>
<path style=" stroke:none;fill-rule:evenodd;fill:rgb(97.647059%,97.647059%,97.647059%);fill-opacity:1;" d="M 24 6 L 30 6 L 30 12 L 24 12 Z M 24 6 "/>
<path style=" stroke:none;fill-rule:evenodd;fill:rgb(97.647059%,97.647059%,97.647059%);fill-opacity:1;" d="M 18 12 L 24 12 L 24 18 L 18 18 Z M 18 12 "/>
<path style=" stroke:none;fill-rule:evenodd;fill:rgb(97.647059%,97.647059%,97.647059%);fill-opacity:1;" d="M 24 18 L 30 18 L 30 24 L 24 24 Z M 24 18 "/>
<path style=" stroke:none;fill-rule:evenodd;fill:rgb(97.647059%,97.647059%,97.647059%);fill-opacity:1;" d="M 18 24 L 24 24 L 24 30 L 18 30 Z M 18 24 "/>
<path style=" stroke:none;fill-rule:evenodd;fill:rgb(97.647059%,97.647059%,97.647059%);fill-opacity:1;" d="M 18 32 L 30 32 L 30 44 L 18 44 Z M 18 32 "/>
</g>
</svg>

<svg xmlns="http://www.w3.org/2000/svg" viewBox="0 0 64 64">
 <g>
  <path d="m 10.672 0 c -1.375 0 -2.672 1.355 -2.672 2.789 l 0 58.42 c 0 1.355 1.375 2.789 2.672 2.789 l 42.656 0 c 1.297 0 2.672 -1.434 2.672 -2.789 l 0 -43.21 l -18 -18 m -27.328 0" style="fill:#c19553;fill-opacity:1;stroke:none;fill-rule:nonzero"/>
  <path d="m 8 48 l 0 13.336 c 0 1.297 1.375 2.664 2.664 2.664 l 42.672 0 c 1.289 0 2.664 -1.367 2.664 -2.664 l 0 -13.336 m -48 0" style="fill:#000;fill-opacity:0.196;stroke:none;fill-rule:nonzero"/>
  <path d="m 24.855 61.988 l -0.566 -2.5 l -3.23 0 l -0.551 2.5 l -2.508 0 c 0.574 -2.133 1.156 -4.082 1.746 -5.832 c 0.59 -1.762 1.156 -3.434 1.707 -5.01 l 2.625 0 c 0.574 1.582 1.141 3.27 1.707 5.059 c 0.57 1.781 1.121 3.707 1.664 5.781 l -2.594 0 m -2.148 -8.742 c -0.129 0.41 -0.254 0.805 -0.375 1.172 c -0.109 0.363 -0.207 0.723 -0.313 1.094 c -0.09 0.344 -0.18 0.703 -0.27 1.063 c -0.082 0.363 -0.164 0.738 -0.238 1.125 l 2.367 0 c -0.082 -0.387 -0.152 -0.762 -0.234 -1.125 c -0.074 -0.359 -0.164 -0.719 -0.273 -1.063 c -0.09 -0.371 -0.195 -0.73 -0.313 -1.094 c -0.105 -0.367 -0.219 -0.762 -0.352 -1.172" style="fill:#fff;fill-opacity:1;stroke:none;fill-rule:nonzero"/>
  <path d="m 42 18 l 14 14 l 0 -14 m -14 0" style="fill:#000;fill-opacity:0.196;stroke:none;fill-rule:nonzero"/>
  <path d="m 31.813 51.02 c 0.695 0 1.32 0.066 1.887 0.207 c 0.555 0.137 1.039 0.359 1.441 0.645 c 0.41 0.297 0.715 0.676 0.926 1.125 c 0.223 0.441 0.328 0.969 0.328 1.574 c 0 0.633 -0.137 1.207 -0.426 1.723 c -0.285 0.508 -0.762 0.902 -1.434 1.172 c 0.219 0.305 0.457 0.641 0.703 1.02 c 0.254 0.359 0.492 0.746 0.73 1.156 c 0.23 0.395 0.453 0.793 0.664 1.203 c 0.223 0.402 0.41 0.781 0.566 1.141 l -2.527 0 c -0.301 -0.695 -0.656 -1.367 -1.055 -2.02 c -0.395 -0.648 -0.813 -1.313 -1.273 -1.977 l -1.254 0 l 0 3.992 l -2.41 0 l 0 -10.688 c 0.238 -0.047 0.492 -0.09 0.762 -0.121 c 0.285 -0.051 0.574 -0.074 0.859 -0.09 c 0.289 -0.023 0.566 -0.043 0.828 -0.051 c 0.266 -0.016 0.484 -0.016 0.684 -0.016 m 2.141 3.535 c 0 -0.574 -0.199 -0.992 -0.59 -1.262 c -0.395 -0.266 -0.914 -0.402 -1.551 -0.402 c -0.09 0 -0.199 0.008 -0.328 0.016 c -0.133 0 -0.262 0.016 -0.395 0.039 l 0 3.258 l 0.523 0 c 0.828 0 1.422 -0.141 1.789 -0.418 c 0.359 -0.297 0.551 -0.707 0.551 -1.23" style="fill:#fff;fill-opacity:1;stroke:none;fill-rule:nonzero"/>
  <path d="m 38 0 l 17.984 18 l -15.227 0 c -1.348 0 -2.758 -1.426 -2.758 -2.773 m 0 -15.227" style="fill:#fff;fill-opacity:0.392;stroke:none;fill-rule:nonzero"/>
  <path d="m 46 58.36 c 0 0.527 -0.082 1.027 -0.238 1.492 c -0.148 0.469 -0.395 0.871 -0.746 1.223 c -0.336 0.352 -0.777 0.633 -1.328 0.844 c -0.551 0.199 -1.215 0.297 -2 0.297 c -0.82 0 -1.512 -0.09 -2.059 -0.277 c -0.551 -0.191 -1.012 -0.418 -1.387 -0.691 l 0.918 -1.715 c 0.328 0.191 0.688 0.371 1.074 0.543 c 0.41 0.18 0.82 0.262 1.238 0.262 c 0.625 0 1.133 -0.141 1.508 -0.434 c 0.395 -0.305 0.582 -0.863 0.582 -1.664 l 0 -5.309 l -4.051 0 l 0 -1.785 l 6.488 0 l 0 7.215" style="fill:#fff;fill-opacity:1;stroke:none;fill-rule:nonzero"/>
  <path d="m 18 0 l 6 0 l 0 6 l -6 0 m 0 -6" style="fill:#f9f9f9;fill-opacity:1;stroke:none;fill-rule:evenodd"/>
  <path d="m 24 6 l 6 0 l 0 6 l -6 0 m 0 -6" style="fill:#f9f9f9;fill-opacity:1;stroke:none;fill-rule:evenodd"/>
  <path d="m 18 12 l 6 0 l 0 6 l -6 0 m 0 -6" style="fill:#f9f9f9;fill-opacity:1;stroke:none;fill-rule:evenodd"/>
  <path d="m 24 18 l 6 0 l 0 6 l -6 0 m 0 -6" style="fill:#f9f9f9;fill-opacity:1;stroke:none;fill-rule:evenodd"/>
  <path d="m 18 24 l 6 0 l 0 6 l -6 0 m 0 -6" style="fill:#f9f9f9;fill-opacity:1;stroke:none;fill-rule:evenodd"/>
  <path d="m 18 32 l 12 0 l 0 12 l -12 0 m 0 -12" style="fill:#f9f9f9;fill-opacity:1;stroke:none;fill-rule:evenodd"/>
 </g>
</svg>
